X:24
T:Rebels Put To Flight. WR1776.24, The
B:Wm.Randall CDs 1776
Z:vmp.Steve Mansfield 2015
M:2/4
L:1/8
W:Three Cu. foot it to their Part.s & 6 round the same again
W:cross over 2 Cu. lead up to the top cast off
Q:2/4=60
K:G
g2 dc | BdBG | ABcA | GFED |
g/f/g/a/ bd | ^cege | fdA^c | d2 D2 :|
|: df/g/ af | dg/a/ bd | cBAG | GFED |
g/f/g/a/ bd | cedc | BAGF | G2 G,2 :|


